cssgg/more-vertical-r.svg

<svg
  width="24"
  height="24"
  viewBox="0 0 24 24"
  fill="none"
  xmlns="http://www.w3.org/2000/svg"
>
  <path
    d="M12 9C13.1046 9 14 8.10457 14 7C14 5.89543 13.1046 5 12 5C10.8954 5 10 5.89543 10 7C10 8.10457 10.8954 9 12 9Z"
    fill="currentColor"
  />
  <path
    d="M14 12C14 13.1046 13.1046 14 12 14C10.8954 14 10 13.1046 10 12C10 10.8954 10.8954 10 12 10C13.1046 10 14 10.8954 14 12Z"
    fill="currentColor"
  />
  <path
    d="M12 19C13.1046 19 14 18.1046 14 17C14 15.8954 13.1046 15 12 15C10.8954 15 10 15.8954 10 17C10 18.1046 10.8954 19 12 19Z"
    fill="currentColor"
  />
  <path
    fill-rule="evenodd"
    clip-rule="evenodd"
    d="M2 3C2 1.34315 3.34315 0 5 0H19C20.6569 0 22 1.34315 22 3V21C22 22.6569 20.6569 24 19 24H5C3.34315 24 2 22.6569 2 21V3ZM5 2H19C19.5523 2 20 2.44771 20 3V21C20 21.5523 19.5523 22 19 22H5C4.44772 22 4 21.5523 4 21V3C4 2.44772 4.44772 2 5 2Z"
    fill="currentColor"
  />
</svg>

<svg viewBox="0 0 24 24" xmlns="http://www.w3.org/2000/svg"><g><path d="M12 9c1.1 0 2-.9 2-2 0-1.11-.9-2-2-2 -1.11 0-2 .89-2 2 0 1.1.89 2 2 2Z"/><path d="M14 12c0 1.1-.9 2-2 2 -1.11 0-2-.9-2-2 0-1.11.89-2 2-2 1.1 0 2 .89 2 2Z"/><path d="M12 19c1.1 0 2-.9 2-2 0-1.11-.9-2-2-2 -1.11 0-2 .89-2 2 0 1.1.89 2 2 2Z"/><path fill-rule="evenodd" d="M2 3c0-1.66 1.34-3 3-3h14c1.65 0 3 1.34 3 3v18c0 1.65-1.35 3-3 3H5c-1.66 0-3-1.35-3-3V3Zm3-1h14c.55 0 1 .44 1 1v18c0 .55-.45 1-1 1H5c-.56 0-1-.45-1-1V3c0-.56.44-1 1-1Z"/></g></svg>
